flaticon/essential/controls.svg

<svg xmlns="http://www.w3.org/2000/svg" width="32" height="32" viewBox="0 0 24 24">
    <path d="M3.429688 17.605469L3.429688.855469C3.429688.621094 3.238281.429688 3 .429688 2.761719.429688 2.570312.621094 2.570312.855469L2.570312 17.605469C1.121094 17.816406 0 19.0625 0 20.570312 0 22.226562 1.347656 23.570312 3 23.570312 4.652344 23.570312 6 22.226562 6 20.570312 6 19.0625 4.878906 17.816406 3.429688 17.605469zM3 22.714844C1.820312 22.714844.855469 21.753906.855469 20.570312.855469 19.390625 1.820312 18.429688 3 18.429688 4.179688 18.429688 5.144531 19.390625 5.144531 20.570312 5.144531 21.753906 4.179688 22.714844 3 22.714844zM12.429688 8.871094L12.429688.855469C12.429688.621094 12.238281.429688 12 .429688 11.761719.429688 11.570312.621094 11.570312.855469L11.570312 8.84375C10.027344 9.011719 8.824219 10.324219 8.824219 11.910156 8.824219 13.5 10.027344 14.8125 11.570312 14.980469L11.570312 23.144531C11.570312 23.378906 11.761719 23.570312 12 23.570312 12.238281 23.570312 12.429688 23.378906 12.429688 23.144531L12.429688 14.953125C13.886719 14.707031 15 13.4375 15 11.910156 15 10.382812 13.886719 9.117188 12.429688 8.871094zM11.910156 14.144531C10.679688 14.144531 9.679688 13.140625 9.679688 11.910156 9.679688 10.679688 10.679688 9.679688 11.910156 9.679688 13.140625 9.679688 14.144531 10.679688 14.144531 11.910156 14.144531 13.140625 13.140625 14.144531 11.910156 14.144531zM24 3.429688C24 1.773438 22.652344.429688 21 .429688 19.347656.429688 18 1.773438 18 3.429688 18 4.9375 19.121094 6.183594 20.570312 6.394531L20.570312 23.144531C20.570312 23.378906 20.761719 23.570312 21 23.570312 21.238281 23.570312 21.429688 23.378906 21.429688 23.144531L21.429688 6.394531C22.878906 6.183594 24 4.9375 24 3.429688zM21 5.570312C19.820312 5.570312 18.855469 4.609375 18.855469 3.429688 18.855469 2.246094 19.820312 1.285156 21 1.285156 22.179688 1.285156 23.144531 2.246094 23.144531 3.429688 23.144531 4.609375 22.179688 5.570312 21 5.570312zM21 5.570312"/>
</svg>

<svg xmlns="http://www.w3.org/2000/svg" width="32" height="32" viewBox="0 0 24 24">
    <path d="M3.43 17.605V.855A.428.428 0 0 0 3 .43a.428.428 0 0 0-.43.425v16.75A3.004 3.004 0 0 0 0 20.57c0 1.657 1.348 3 3 3s3-1.343 3-3a3.004 3.004 0 0 0-2.57-2.965zM3 22.715c-1.18 0-2.145-.961-2.145-2.145 0-1.18.965-2.14 2.145-2.14 1.18 0 2.145.96 2.145 2.14A2.148 2.148 0 0 1 3 22.715zm0 0M12.43 8.871V.855A.428.428 0 0 0 12 .43a.428.428 0 0 0-.43.425v7.989a3.088 3.088 0 0 0 0 6.136v8.165c0 .234.192.425.43.425s.43-.191.43-.425v-8.192A3.09 3.09 0 0 0 15 11.91a3.086 3.086 0 0 0-2.57-3.039zm-.52 5.274a2.232 2.232 0 1 1 2.234-2.234 2.239 2.239 0 0 1-2.234 2.234zm0 0M24 3.43c0-1.657-1.348-3-3-3s-3 1.343-3 3a3.004 3.004 0 0 0 2.57 2.965v16.75c0 .234.192.425.43.425s.43-.191.43-.425V6.395A3.004 3.004 0 0 0 24 3.43zm-3 2.14c-1.18 0-2.145-.96-2.145-2.14 0-1.184.965-2.145 2.145-2.145 1.18 0 2.145.961 2.145 2.145 0 1.18-.965 2.14-2.145 2.14zm0 0"/>
</svg>
